!!!SOCIAL_FUNCTION:	initiation songs of the first and second degrees
!!!REG: Great Lakes
!!!PDT:	1909
!!!OTL: No_3_Dancing_Song.krn
**kern	**kern
*staff2	*staff1
=1-	=1-
*clefF4	*clefF4
*k[f#c#g#d#]	*k[f#c#g#d#]
*M4/4	*M4/4
4GG#/	2c#\
4GG#/	.
4GG#/	8c#\L
.	8c#\
4GG#/	(8c#\
.	8B\J)
=2	=2
1r	2c#\
.	8B\L
.	8B\J
.	4G#\
=3	=3
1r	2B\
.	8c#\L
.	8B\J
.	4G#\
=4	=4
1r	2G#\
.	8G#\L
.	8G#\J
.	4F#\
=5	=5
1r	(16F#\LK
.	(8.E\J)
.	4E\)
.	8E\L
.	8E\J
.	4C#/
=6||	=6||
*M5/4	*M5/4
1r	2C#/
.	8C#/L
.	8C#/J
.	4C#/
4r	4r
=7||	=7||
*M4/4	*M4/4
1r	2F#\
.	8F#\L
.	8F#\J
.	4E\
=8	=8
1r	2F#\
.	8F#\L
.	8F#\J
.	4E\
=9	=9
1r	(16F#\LK
.	(8.E\J)
.	4E\)
.	8E\L
.	8E\J
.	4C#/
=10||	=10||
*M5/4	*M5/4
1r	2C#/
.	8C#/L
.	8C#/J
.	4C#/
4r	4r
=11||	=11||
*M4/4	*M4/4
1r	2E\
.	8E\L
.	8E\J
.	4C#/
=12	=12
1r	2C#/
.	8C#/L
.	8C#/J
.	4C#/
=13||	=13||
*M2/4	*M2/4
2r	2C#^/
=14	=14
2r	8c#\L
.	8c#\J
.	4c#\
=15	=15
2r	4c#\
.	4c#\
=16	=16
2r	(4c#\
.	4B\)
=17||	=17||
*M3/4	*M3/4
2.r	8c#\L
.	8B\J
.	4G#\
.	4r
=18||	=18||
*M4/4	*M4/4
1r	2B\
.	8c#\L
.	8B\J
.	4G#\
=19	=19
1r	2G#\
.	8G#\L
.	8G#\J
.	4F#\
=20	=20
1r	(16F#\LK
.	(8.E\J)
.	4E\)
.	8E\L
.	8E\J
.	4C#/
=21||	=21||
*M5/4	*M5/4
1r	2C#/
.	8C#/L
.	8C#/J
.	4C#/
4r	4r
=22||	=22||
*M4/4	*M4/4
1r	2F#\
.	8F#\L
.	8F#\J
.	4E\
=23	=23
1r	2F#\
.	8F#\L
.	8F#\J
.	4E\
=24	=24
1r	(16F#\LK
.	(8.E\J)
.	4E\)
.	8E\L
.	8E\J
.	4C#/
=25||	=25||
*M5/4	*M5/4
1r	2C#/
.	8C#/L
.	8C#/J
.	4C#/
4r	4r
=26||	=26||
*M4/4	*M4/4
1r	2E\
.	8E\L
.	8E\J
.	4C#/
=27	=27
1r	2C#/
.	8C#/L
.	8C#/J
.	4C#/
=28	=28
1r	1C#
==	==
*-	*-
